client/public/img/game/infection/obstacles/hazel_crate.svg

<?xml version="1.0" encoding="UTF-8" standalone="no"?>
<!-- Created with Inkscape (http://www.inkscape.org/) -->

<svg
   width="185"
   height="185"
   viewBox="0 0 48.947917 48.947917"
   version="1.1"
   id="svg5"
   xml:space="preserve"
   xmlns:xlink="http://www.w3.org/1999/xlink"
   xmlns="http://www.w3.org/2000/svg"
   xmlns:svg="http://www.w3.org/2000/svg"><defs
     id="defs2"><clipPath
       id="b"><circle
         cy="-15"
         r="9.5"
         id="circle900"
         cx="0" /><circle
         cy="-15"
         r="9.5"
         transform="rotate(120)"
         id="circle902"
         cx="0" /><circle
         cy="-15"
         r="9.5"
         transform="rotate(-120)"
         id="circle904"
         cx="0" /></clipPath><mask
       id="a"
       width="60"
       height="60"
       x="-30"
       y="-30"
       maskUnits="userSpaceOnUse"><path
         fill="#ffffff"
         d="M -27,-27 H 27 V 27 H -27 Z"
         id="path907" /><path
         d="m 2,-23 v -4 h -4 v 4 m 1.5,17 v 4 h 1 v -4"
         id="path909" /><circle
         cy="-15"
         r="10.5"
         id="circle911"
         cx="0" /><g
         transform="rotate(120)"
         id="g917"><path
           d="m 2,-23 v -4 h -4 v 4 m 1.5,17 v 4 h 1 v -4"
           id="path913" /><circle
           cy="-15"
           r="10.5"
           id="circle915"
           cx="0" /></g><g
         transform="rotate(-120)"
         id="g923"><path
           d="m 2,-23 v -4 h -4 v 4 m 1.5,17 v 4 h 1 v -4"
           id="path919" /><circle
           cy="-15"
           r="10.5"
           id="circle921"
           cx="0" /></g><circle
         r="3"
         id="circle925"
         cx="0"
         cy="0" /></mask><clipPath
       id="b-9"><circle
         cy="-15"
         r="9.5"
         id="circle900-9"
         cx="0" /><circle
         cy="-15"
         r="9.5"
         transform="rotate(120)"
         id="circle902-1"
         cx="0" /><circle
         cy="-15"
         r="9.5"
         transform="rotate(-120)"
         id="circle904-5"
         cx="0" /></clipPath><pattern
       xlink:href="#Strips1_1-47"
       preserveAspectRatio="xMidYMid"
       id="pattern183-9"
       patternTransform="matrix(1.7225763,1.7225763,-2.4000286,2.4000286,15.220899,134.16311)"
       x="0"
       y="0" /><pattern
       patternUnits="userSpaceOnUse"
       width="2"
       height="10"
       patternTransform="translate(0,0) scale(2,2)"
       preserveAspectRatio="xMidYMid"
       id="Strips1_1-47"
       style="fill:#a68024"><rect
         style="stroke:none;fill:#a68024"
         x="0"
         y="-0.5"
         width="1"
         height="11"
         id="rect134-1" /></pattern></defs><g
     id="layer1"><rect
       style="fill:#d96300;fill-opacity:1;stroke:none;stroke-width:1.5658;stroke-linecap:butt;stroke-linejoin:miter;stroke-miterlimit:4;stroke-dasharray:none;stroke-opacity:1"
       id="rect4220"
       width="33.151886"
       height="33.151886"
       x="7.8470125"
       y="7.8470125" /><path
       id="rect938"
       style="fill:#6ba371;fill-opacity:1;stroke-width:0;stroke-linecap:round"
       d="M 0.98120935,0.98121161 V 47.966706 H 47.966708 V 0.98121161 Z M 8.9084276,8.90843 H 40.039488 V 40.039488 H 8.9084276 Z" /><rect
       style="fill:none;fill-opacity:1;stroke:none;stroke-width:1.96165;stroke-linecap:butt;stroke-linejoin:bevel;stroke-miterlimit:4;stroke-dasharray:none;stroke-opacity:1"
       id="rect2620"
       width="33.151886"
       height="33.151886"
       x="7.8470125"
       y="7.8470125" /><path
       d="M 13.092213,9.0505949 9.5136127,12.629195 v 23.669999 l 3.5781003,3.5781 h 23.671 l -5e-4,-30.8266991 z"
       fill="#8e8a81"
       stroke="#333333"
       stroke-width="1.9616"
       id="path6-3-5"
       style="display:inline;fill:url(#pattern183-9);fill-opacity:1;stroke-linecap:round;stroke-linejoin:round" /><rect
       style="fill:#383838;fill-opacity:1;stroke:#223624;stroke-width:1.96165;stroke-linecap:butt;stroke-linejoin:miter;stroke-miterlimit:4;stroke-dasharray:none;stroke-opacity:1"
       id="rect3681-5"
       width="31.131674"
       height="31.131672"
       x="8.9081221"
       y="8.908123" /><rect
       style="fill:none;fill-opacity:1;stroke:#223624;stroke-width:1.96165;stroke-linecap:round;stroke-linejoin:round;stroke-miterlimit:4;stroke-dasharray:none;stroke-opacity:1"
       id="rect2330"
       width="46.986267"
       height="46.986267"
       x="0.98082507"
       y="0.98082507" /><path
       style="fill:none;stroke:#2b452e;stroke-width:1.96165;stroke-linecap:butt;stroke-linejoin:miter;stroke-miterlimit:4;stroke-dasharray:none;stroke-opacity:1"
       d="m 40.039794,8.9081228 h 7.8466"
       id="path5886" /><path
       style="fill:none;stroke:#2b452e;stroke-width:1.96165;stroke-linecap:butt;stroke-linejoin:miter;stroke-miterlimit:4;stroke-dasharray:none;stroke-opacity:1"
       d="m 40.039794,40.039794 h 7.8466"
       id="path5886-3" /><path
       style="fill:none;stroke:#2b452e;stroke-width:1.96165;stroke-linecap:butt;stroke-linejoin:miter;stroke-miterlimit:4;stroke-dasharray:none;stroke-opacity:1"
       d="M 1.0615177,40.039794 H 8.9081181"
       id="path5886-6" /><path
       style="fill:none;stroke:#2b452e;stroke-width:1.96165;stroke-linecap:butt;stroke-linejoin:miter;stroke-miterlimit:4;stroke-dasharray:none;stroke-opacity:1"
       d="M 1.0615177,8.9081228 H 8.9081181"
       id="path5886-7" /><g
       id="g1"><path
         id="rect1"
         style="fill:#a48642;fill-opacity:1;fill-rule:evenodd;stroke:#5b4a24;stroke-width:1.96162;stroke-linecap:square;stroke-opacity:1"
         d="M 0.98081005,0.98081005 H 13.416227 V 4.94956 8.91831 L 9.271088,12.88706 H 5.125949 0.98081005 Z" /><circle
         style="fill:#be9e54;fill-opacity:1;stroke:#5b4a24;stroke-width:0.980823;stroke-linecap:round;stroke-linejoin:round;stroke-opacity:1"
         id="path851"
         cx="7.1985188"
         cy="6.9339352"
         r="1.6222014" /></g><g
       id="g2"
       transform="rotate(90,24.473959,24.473958)"><path
         id="rect1-7"
         style="fill:#a48642;fill-opacity:1;fill-rule:evenodd;stroke:#5b4a24;stroke-width:1.96162;stroke-linecap:square;stroke-opacity:1"
         d="M 0.98081005,0.98081005 H 13.416227 V 4.94956 8.91831 L 9.271088,12.88706 H 5.125949 0.98081005 Z" /><circle
         style="fill:#be9e54;fill-opacity:1;stroke:#5b4a24;stroke-width:0.980823;stroke-linecap:round;stroke-linejoin:round;stroke-opacity:1"
         id="path851-9"
         cx="7.1985188"
         cy="6.9339352"
         r="1.6222014" /></g><g
       id="g2-1"
       transform="rotate(-90,24.473959,24.473959)"><path
         id="rect1-6"
         style="fill:#a48642;fill-opacity:1;fill-rule:evenodd;stroke:#5b4a24;stroke-width:1.96162;stroke-linecap:square;stroke-opacity:1"
         d="M 0.98081005,0.98081005 H 13.416227 V 4.94956 8.91831 L 9.271088,12.88706 H 5.125949 0.98081005 Z" /><circle
         style="fill:#be9e54;fill-opacity:1;stroke:#5b4a24;stroke-width:0.980823;stroke-linecap:round;stroke-linejoin:round;stroke-opacity:1"
         id="path851-1"
         cx="7.1985188"
         cy="6.9339352"
         r="1.6222014" /></g><g
       id="g2-0"
       transform="rotate(180,24.473959,24.473959)"><path
         id="rect1-4"
         style="fill:#a48642;fill-opacity:1;fill-rule:evenodd;stroke:#5b4a24;stroke-width:1.96162;stroke-linecap:square;stroke-opacity:1"
         d="M 0.98081005,0.98081005 H 13.416227 V 4.94956 8.91831 L 9.271088,12.88706 H 5.125949 0.98081005 Z" /><circle
         style="fill:#be9e54;fill-opacity:1;stroke:#5b4a24;stroke-width:0.980823;stroke-linecap:round;stroke-linejoin:round;stroke-opacity:1"
         id="path851-4"
         cx="7.1985188"
         cy="6.9339352"
         r="1.6222014" /></g><g
       id="g2-5"
       style="stroke-width:1.12203"
       transform="matrix(1.5524892,-0.01117288,2.1370913e-4,1.4458717,-89.963684,-89.14582)"><g
         id="g2312"
         transform="matrix(0.33669896,-4.9764479e-5,-8.8649981e-7,0.34313894,72.516284,78.269729)"
         style="display:inline;stroke-width:44.4111"><g
           mask="none"
           id="g936"
           style="display:inline;fill:#281e33;fill-opacity:1;stroke:none;stroke-width:44.4111;stroke-opacity:1"
           transform="matrix(0.97854222,0,0,0.97853768,4,4.6909786)"><path
             id="circle930"
             style="display:inline;fill:#639e69;fill-opacity:1;stroke:none;stroke-width:44.4111;stroke-opacity:1"
             d="m -1.9999265,-25.857158 a 15,15 0 0 0 -13.0001635,14.857034 15,15 0 0 0 2.330059,8.0163287 10.5,10.5 0 0 1 8.772993,5.2339193 10.5,10.5 0 0 1 0.6572027,1.3567625 A 15,15 0 0 0 5.4044808e-7,4.0000364 15,15 0 0 0 3.2278455,3.644135 10.5,10.5 0 0 1 3.8970391,2.250124 10.5,10.5 0 0 1 12.673093,-2.9837953 15,15 0 0 0 15.000091,-11.000124 15,15 0 0 0 1.9999276,-25.857158 v 0.56383 a 10.499999,10.5 0 0 1 8.5000084,10.293332 10.499999,10.5 0 0 1 -9.99988992,10.4563575 v 1.5863764 A 3.0000001,3.0000001 0 0 1 3.0000187,-9.1357217e-5 3.0000001,3.0000001 0 0 1 5.4044808e-7,2.9999407 3.0000001,3.0000001 0 0 1 -3.0000176,-9.1357217e-5 3.0000001,3.0000001 0 0 1 -0.500045,-2.9536904 v -1.5899481 a 10.499999,10.5 0 0 1 -9.99989,-10.4563575 10.499999,10.5 0 0 1 8.5000085,-10.293332 z" /><path
             id="circle932"
             style="fill:#639e69;fill-opacity:1;stroke:none;stroke-width:44.4111;stroke-opacity:1"
             d="m -12.669674,-2.9838479 a 10.499999,10.5 60 0 1 8.7725492,5.2338534 10.499999,10.5 60 0 1 0.6576378,1.35694 A 15,15 61.845034 0 0 -2.9545931e-5,4.0000042 15,15 61.845034 0 0 3.2395686,3.6070067 10.5,10.5 67.5 0 1 3.8971836,2.2498719 10.5,10.5 67.5 0 1 12.674717,-2.992828 15,15 61.845034 0 0 15.0001,-10.999972 15,15 61.845034 0 0 1.9998923,-25.862178 l 1.63e-5,0.558244 A 10.5,10.5 67.5 0 1 10.499998,-15.000138 10.5,10.5 67.5 0 1 0.49987531,-4.5437093 l 2.0878e-4,1.5897995 a 3.0000001,3.0000001 60 0 1 2.09794051,1.453939 3.0000001,3.0000001 60 0 1 -1.0980949,4.0981079 3.0000001,3.0000001 60 0 1 -4.098113,-1.0980759 3.0000001,3.0000001 60 0 1 1.0980949,-4.0981079 3.0000001,3.0000001 60 0 1 1.0000222,-0.3522938 l 3.719e-5,-1.5914145 a 10.5,10.5 67.5 0 1 -8.33310909,-4.781424 10.5,10.5 67.5 0 1 -1.6669669,-5.676825 10.5,10.5 67.5 0 1 8.4999977,-10.293231 l 1.18e-4,-0.563625 a 15,15 61.845034 0 0 -12.9999917,14.85683 15,15 61.845034 0 0 2.330307,8.0161821 z"
             transform="rotate(120)" /><path
             id="circle934"
             style="fill:#639e69;fill-opacity:1;stroke:none;stroke-width:44.4111;stroke-opacity:1"
             d="m 12.669673,-2.983847 a 15,15 28.154966 0 0 2.330307,-8.016182 15,15 28.154966 0 0 -12.9999913,-14.85683 l 1.18e-4,0.563625 a 10.5,10.5 22.5 0 1 8.4999983,10.293231 10.5,10.5 22.5 0 1 -1.6669675,5.6768249 10.5,10.5 22.5 0 1 -8.33310903,4.7814241 l 3.719e-5,1.5914144 a 3.0000001,3.0000001 30 0 1 1.00002224,0.3522939 3.0000001,3.0000001 30 0 1 1.0980949,4.0981079 3.0000001,3.0000001 30 0 1 -4.098113,1.0980758 3.0000001,3.0000001 30 0 1 -1.0980949,-4.0981079 3.0000001,3.0000001 30 0 1 2.09794047,-1.453939 l 1.74e-4,-1.5606548 A 10.5,10.5 22.5 0 1 -10.499998,-15.000137 10.5,10.5 22.5 0 1 -1.9999891,-25.293079 l 9.6e-6,-0.563846 a 15,15 28.154966 0 0 -13.0001215,14.856954 15,15 28.154966 0 0 2.327114,8.0163919 10.5,10.5 22.5 0 1 8.7758029,5.233452 10.5,10.5 22.5 0 1 0.6694429,1.3943067 A 15,15 28.154966 0 0 2.9005483e-5,4.0000051 15,15 28.154966 0 0 3.2394865,3.6069465 10.5,10.499999 30 0 1 3.8971243,2.2500064 10.5,10.499999 30 0 1 12.669673,-2.983847 Z"
             transform="rotate(-120)" /></g><circle
           r="11.75"
           fill="none"
           stroke="#000"
           stroke-width="28.3156"
           clip-path="url(#b-9)"
           id="circle938"
           style="display:inline;stroke:#446e49;stroke-width:2.90057;stroke-dasharray:none;stroke-opacity:1"
           cx="0"
           cy="0"
           transform="matrix(0.97854222,0,0,0.97853768,4,4.6909786)" /></g></g><g
       id="g2-4"
       transform="matrix(0.9999983,0,0,0.9999983,-0.05525037,0.02275414)"><path
         style="fill:#405c3d;fill-opacity:1;stroke:none;stroke-width:1.96162;stroke-dasharray:none;stroke-opacity:1"
         d="m 48.045882,29.597514 c -0.03367,-0.885031 -0.220523,-0.131229 -0.525462,0.354583 -0.468199,0.745907 -1.60734,1.60609 -2.75553,1.34929 -2.039232,-0.456088 -5.100828,0.215415 -5.057405,2.916169 0.07202,4.479035 0.419997,0.04515 -4.217307,3.688137 -4.50047,3.535495 2.808151,2.132343 1.554739,4.418737 -0.629107,1.147575 -2.477714,2.218753 -4.421172,1.585464 -3.017657,-0.983325 -5.199366,2.526622 -5.199366,2.526622 -1.415003,1.217777 -0.703674,1.535427 -0.320708,1.523362 h 20.942211 z"
         id="path17-5-3" /><path
         style="fill:#354d33;fill-opacity:1;stroke:none;stroke-width:1.32292;stroke-dasharray:none;stroke-opacity:1"
         d="m 47.726759,36.455725 c -0.548412,-0.557826 -2.760683,-0.27 -3.059103,0.9016 -0.296197,1.162874 -2.032454,1.543227 -2.875554,2.2407 -4.40973,3.648046 1.353876,0.49885 -1.773027,5.509906 -0.692813,1.110276 -3.838931,1.628245 -1.846821,2.374484 1.992111,0.746238 4.259847,1.960938 5.527691,0.667056 1.267844,-1.293881 1.939632,0.41091 3.69644,-0.840849 1.756807,-1.251759 1.296217,-9.870478 0.330374,-10.852897 z"
         id="path17-4-6-8" /><path
         style="fill:none;fill-opacity:1;stroke:#151e15;stroke-width:1.96162418;stroke-dasharray:none;stroke-opacity:1"
         d="m 47.96684,29.604826 c -0.03367,-0.885031 -0.220523,-0.131229 -0.525462,0.354583 -0.468199,0.745907 -1.60734,1.60609 -2.75553,1.34929 -2.039232,-0.456088 -5.100828,0.215415 -5.057405,2.916169 0.07202,4.479035 0.419997,0.04515 -4.217307,3.688137 -4.50047,3.535495 2.808151,2.132343 1.554739,4.418737 -0.629107,1.147575 -2.477714,2.218753 -4.421172,1.585464 -3.017657,-0.983325 -5.199366,2.526622 -5.199366,2.526622 -1.415003,1.217777 -0.703674,1.535427 -0.320708,1.523362 H 47.96684 Z"
         id="path17-5" /></g><path
       d="m 22.4208,2.5161679 c 2.920328,-0.9007039 4.993396,-0.6306288 6.998326,-0.2133142 2.760057,0.5758103 6.291891,0.7658896 9.36798,1.0552055 0.662065,0.062126 6.959523,1.3774891 5.94228,2.329478 C 40.266,9.8618129 38.590049,7.8975995 35.979968,7.2423923 34.925506,6.9775352 32.479651,8.4144882 31.171609,8.7185028 28.99524,9.2243708 28.162044,7.270621 26.893506,6.7207675 25.640236,6.1732866 19.385698,8.6261288 19.268723,7.056682 19.192184,6.0300825 22.06478,3.741288 22.4208,2.5161679 Z"
       style="fill:#354d33;fill-opacity:1;stroke:#151e15;stroke-width:1.96162085;stroke-linecap:round;stroke-linejoin:round;stroke-dasharray:none;stroke-opacity:1"
       id="path1-1" /><path
       d="m 8.4505617,24.28177 c 0.690246,2.501492 0.3746504,4.473535 0.7792497,7.106869 0.206279,1.339748 5.5279676,12.849646 8.0941696,9.426896 0.663808,-0.884682 -0.02857,-3.660454 -0.158584,-4.801948 -0.265888,-2.335246 3.284424,-2.491674 0.440018,-5.837049 -1.291333,-1.519196 -3.836055,-1.360671 -4.916765,-3.03896 -0.460785,-0.716901 -0.683893,-6.630807 -4.2383412,-2.856515 z"
       style="fill:#354d33;fill-opacity:1;stroke:#151e15;stroke-width:1.12664;stroke-linecap:round;stroke-linejoin:round;stroke-dasharray:none;stroke-opacity:1"
       id="path1-8" /></g></svg>

<svg xmlns="http://www.w3.org/2000/svg" xmlns:xlink="http://www.w3.org/1999/xlink" xml:space="preserve" width="185" height="185" viewBox="0 0 48.948 48.948"><defs><pattern xlink:href="#a" id="b" x="0" y="0" patternTransform="rotate(45 -154.339 85.455)scale(2.43609 3.39415)" preserveAspectRatio="xMidYMid"/><pattern id="a" width="2" height="10" patternTransform="scale(2)" patternUnits="userSpaceOnUse" preserveAspectRatio="xMidYMid" style="fill:#a68024"><path d="M0-.5h1v11H0z" style="stroke:none;fill:#a68024"/></pattern><clipPath id="c"><circle cy="-15" r="9.5"/><circle cy="-15" r="9.5" transform="rotate(120)"/><circle cy="-15" r="9.5" transform="rotate(-120)"/></clipPath></defs><path d="M7.847 7.847h33.152v33.152H7.847z" style="fill:#d96300;fill-opacity:1;stroke:none;stroke-width:1.5658;stroke-linecap:butt;stroke-linejoin:miter;stroke-miterlimit:4;stroke-dasharray:none;stroke-opacity:1"/><path d="M.981.981v46.986h46.986V.98Zm7.927 7.927H40.04V40.04H8.91Z" style="fill:#6ba371;fill-opacity:1;stroke-width:0;stroke-linecap:round"/><path d="M7.847 7.847h33.152v33.152H7.847z" style="fill:none;fill-opacity:1;stroke:none;stroke-width:1.96165;stroke-linecap:butt;stroke-linejoin:bevel;stroke-miterlimit:4;stroke-dasharray:none;stroke-opacity:1"/><path fill="#8e8a81" stroke="#333" stroke-width="1.962" d="m13.092 9.05-3.578 3.58V36.3l3.578 3.577h23.67V9.051z" style="display:inline;fill:url(#b);fill-opacity:1;stroke-linecap:round;stroke-linejoin:round"/><path d="M8.908 8.908H40.04V40.04H8.908z" style="fill:#383838;fill-opacity:1;stroke:#223624;stroke-width:1.96165;stroke-linecap:butt;stroke-linejoin:miter;stroke-miterlimit:4;stroke-dasharray:none;stroke-opacity:1"/><path d="M.981.981h46.986v46.986H.981z" style="fill:none;fill-opacity:1;stroke:#223624;stroke-width:1.96165;stroke-linecap:round;stroke-linejoin:round;stroke-miterlimit:4;stroke-dasharray:none;stroke-opacity:1"/><path d="M40.04 8.908h7.846M40.04 40.04h7.846M1.062 40.04h7.846M1.062 8.908h7.846" style="fill:none;stroke:#2b452e;stroke-width:1.96165;stroke-linecap:butt;stroke-linejoin:miter;stroke-miterlimit:4;stroke-dasharray:none;stroke-opacity:1"/><path d="M.98.98h12.436v7.938l-4.145 3.97H.981Z" style="fill:#a48642;fill-opacity:1;fill-rule:evenodd;stroke:#5b4a24;stroke-width:1.96162;stroke-linecap:square;stroke-opacity:1"/><circle cx="7.199" cy="6.934" r="1.622" style="fill:#be9e54;fill-opacity:1;stroke:#5b4a24;stroke-width:.980823;stroke-linecap:round;stroke-linejoin:round;stroke-opacity:1"/><g transform="rotate(90 24.474 24.474)"><path d="M.98.98h12.436v7.938l-4.145 3.97H.981Z" style="fill:#a48642;fill-opacity:1;fill-rule:evenodd;stroke:#5b4a24;stroke-width:1.96162;stroke-linecap:square;stroke-opacity:1"/><circle cx="7.199" cy="6.934" r="1.622" style="fill:#be9e54;fill-opacity:1;stroke:#5b4a24;stroke-width:.980823;stroke-linecap:round;stroke-linejoin:round;stroke-opacity:1"/></g><g transform="rotate(-90 24.474 24.474)"><path d="M.98.98h12.436v7.938l-4.145 3.97H.981Z" style="fill:#a48642;fill-opacity:1;fill-rule:evenodd;stroke:#5b4a24;stroke-width:1.96162;stroke-linecap:square;stroke-opacity:1"/><circle cx="7.199" cy="6.934" r="1.622" style="fill:#be9e54;fill-opacity:1;stroke:#5b4a24;stroke-width:.980823;stroke-linecap:round;stroke-linejoin:round;stroke-opacity:1"/></g><g transform="rotate(180 24.474 24.474)"><path d="M.98.98h12.436v7.938l-4.145 3.97H.981Z" style="fill:#a48642;fill-opacity:1;fill-rule:evenodd;stroke:#5b4a24;stroke-width:1.96162;stroke-linecap:square;stroke-opacity:1"/><circle cx="7.199" cy="6.934" r="1.622" style="fill:#be9e54;fill-opacity:1;stroke:#5b4a24;stroke-width:.980823;stroke-linecap:round;stroke-linejoin:round;stroke-opacity:1"/></g><g style="stroke-width:1.12203"><g style="display:inline;stroke-width:44.4111" transform="matrix(.5115 -.00375 .00007 .48549 24.725 25.524)"><g style="display:inline;fill:#281e33;fill-opacity:1;stroke:none;stroke-width:44.4111;stroke-opacity:1"><path d="M-2-25.857A15 15 0 0 0-15-11a15 15 0 0 0 2.33 8.016A10.5 10.5 0 0 1-3.897 2.25a10.5 10.5 0 0 1 .657 1.357A15 15 0 0 0 0 4a15 15 0 0 0 3.228-.356 10.5 10.5 0 0 1 .669-1.394 10.5 10.5 0 0 1 8.776-5.234A15 15 0 0 0 15-11 15 15 0 0 0 2-25.857v.564A10.5 10.5 0 0 1 10.5-15 10.5 10.5 0 0 1 .5-4.544v1.587A3 3 0 0 1 3 0a3 3 0 0 1-3 3 3 3 0 0 1-3-3A3 3 0 0 1-.5-2.954v-1.59A10.5 10.5 0 0 1-10.5-15 10.5 10.5 0 0 1-2-25.293z" style="display:inline;fill:#639e69;fill-opacity:1;stroke:none;stroke-width:44.4111;stroke-opacity:1"/><path d="M-12.67-2.984A10.5 10.5 60 0 1-3.897 2.25a10.5 10.5 60 0 1 .658 1.357A15 15 61.845 0 0 0 4a15 15 61.845 0 0 3.24-.393 10.5 10.5 67.5 0 1 .657-1.357 10.5 10.5 67.5 0 1 8.778-5.243A15 15 61.845 0 0 15-11 15 15 61.845 0 0 2-25.862v.558A10.5 10.5 67.5 0 1 10.5-15 10.5 10.5 67.5 0 1 .5-4.544v1.59A3 3 60 0 1 2.598-1.5 3 3 60 0 1 1.5 2.598 3 3 60 0 1-2.598 1.5 3 3 60 0 1-1.5-2.598a3 3 60 0 1 1-.352v-1.592a10.5 10.5 67.5 0 1-8.333-4.781A10.5 10.5 67.5 0 1-10.5-15 10.5 10.5 67.5 0 1-2-25.293v-.564A15 15 61.845 0 0-15-11a15 15 61.845 0 0 2.33 8.016" style="fill:#639e69;fill-opacity:1;stroke:none;stroke-width:44.4111;stroke-opacity:1" transform="rotate(120)"/><path d="M12.67-2.984A15 15 28.155 0 0 15-11 15 15 28.155 0 0 2-25.857v.564A10.5 10.5 22.5 0 1 10.5-15a10.5 10.5 22.5 0 1-1.667 5.677A10.5 10.5 22.5 0 1 .5-4.542v1.592a3 3 30 0 1 1 .352A3 3 30 0 1 2.598 1.5 3 3 30 0 1-1.5 2.598 3 3 30 0 1-2.598-1.5 3 3 30 0 1-.5-2.954v-1.56A10.5 10.5 22.5 0 1-10.5-15 10.5 10.5 22.5 0 1-2-25.293v-.564A15 15 28.155 0 0-15-11a15 15 28.155 0 0 2.327 8.016A10.5 10.5 22.5 0 1-3.897 2.25a10.5 10.5 22.5 0 1 .67 1.394A15 15 28.155 0 0 0 4a15 15 28.155 0 0 3.24-.393 10.5 10.5 30 0 1 .657-1.357 10.5 10.5 30 0 1 8.773-5.234" style="fill:#639e69;fill-opacity:1;stroke:none;stroke-width:44.4111;stroke-opacity:1" transform="rotate(-120)"/></g><circle r="11.75" fill="none" stroke="#000" stroke-width="28.316" clip-path="url(#c)" style="display:inline;stroke:#446e49;stroke-width:2.90057;stroke-dasharray:none;stroke-opacity:1"/></g></g><path d="M48.046 29.598c-.034-.886-.22-.132-.526.354-.468.746-1.607 1.606-2.755 1.35-2.04-.457-5.1.215-5.058 2.916.073 4.479.42.045-4.217 3.688-4.5 3.535 2.808 2.132 1.555 4.418-.63 1.148-2.478 2.22-4.421 1.586-3.018-.983-5.2 2.527-5.2 2.527-1.415 1.217-.703 1.535-.32 1.523h20.942z" style="fill:#405c3d;fill-opacity:1;stroke:none;stroke-width:1.96162;stroke-dasharray:none;stroke-opacity:1" transform="matrix(1 0 0 1 -.055 .023)"/><path d="M47.727 36.456c-.549-.558-2.76-.27-3.06.901-.296 1.163-2.032 1.544-2.875 2.241-4.41 3.648 1.354.499-1.773 5.51-.693 1.11-3.839 1.628-1.847 2.374s4.26 1.961 5.528.667c1.268-1.293 1.94.411 3.696-.84 1.757-1.252 1.297-9.87.33-10.853" style="fill:#354d33;fill-opacity:1;stroke:none;stroke-width:1.32292;stroke-dasharray:none;stroke-opacity:1" transform="matrix(1 0 0 1 -.055 .023)"/><path d="M47.967 29.605c-.034-.885-.22-.131-.526.354-.468.746-1.607 1.606-2.755 1.35-2.04-.456-5.101.215-5.058 2.916.072 4.479.42.045-4.217 3.688-4.5 3.536 2.808 2.132 1.555 4.419-.63 1.147-2.478 2.218-4.421 1.585-3.018-.983-5.2 2.527-5.2 2.527-1.415 1.218-.703 1.535-.32 1.523h20.942Z" style="fill:none;fill-opacity:1;stroke:#151e15;stroke-width:1.96162418;stroke-dasharray:none;stroke-opacity:1" transform="matrix(1 0 0 1 -.055 .023)"/><path d="M22.42 2.516c2.921-.9 4.994-.63 7-.213 2.76.576 6.291.766 9.367 1.055.662.062 6.96 1.378 5.942 2.33-4.463 4.174-6.139 2.21-8.749 1.554-1.054-.264-3.5 1.172-4.808 1.477-2.177.505-3.01-1.448-4.278-1.998-1.254-.548-7.508 1.905-7.625.336-.077-1.027 2.796-3.316 3.152-4.54" style="fill:#354d33;fill-opacity:1;stroke:#151e15;stroke-width:1.96162085;stroke-linecap:round;stroke-linejoin:round;stroke-dasharray:none;stroke-opacity:1"/><path d="M8.45 24.282c.69 2.501.375 4.473.78 7.107.206 1.34 5.528 12.85 8.094 9.427.664-.885-.029-3.66-.159-4.802-.265-2.336 3.285-2.492.44-5.837-1.29-1.52-3.836-1.361-4.916-3.04-.461-.716-.684-6.63-4.239-2.856z" style="fill:#354d33;fill-opacity:1;stroke:#151e15;stroke-width:1.12664;stroke-linecap:round;stroke-linejoin:round;stroke-dasharray:none;stroke-opacity:1"/></svg>
